src/assets/PekerjaButton.svg

<svg width="180" height="118" viewBox="0 0 180 118" fill="none" xmlns="http://www.w3.org/2000/svg">
<g clip-path="url(#clip0)">
<rect width="180" height="118" rx="10" fill="#2F9C95"/>
<path opacity="0.2" d="M59 -0.5C59 29.5995 34.5995 54 4.5 54C-25.5995 54 -50 29.5995 -50 -0.5C-50 -30.5995 -25.5995 -55 4.5 -55C34.5995 -55 59 -30.5995 59 -0.5ZM-24.9478 -0.5C-24.9478 15.7636 -11.7636 28.9478 4.5 28.9478C20.7636 28.9478 33.9478 15.7636 33.9478 -0.5C33.9478 -16.7636 20.7636 -29.9478 4.5 -29.9478C-11.7636 -29.9478 -24.9478 -16.7636 -24.9478 -0.5Z" fill="#1E524E"/>
<path opacity="0.1" d="M172.97 131.013C137.875 78.3805 92.0358 93.8761 47.3377 59.3238C-34.403 -3.86273 46.4497 -141.066 -114 -150.423L-42.4658 315.113L174.4 281.789C204.646 277.142 208.064 183.645 172.97 131.013Z" stroke="black" stroke-width="2" stroke-dasharray="5 4"/>
<circle cx="149.49" cy="102.49" r="7.49" fill="#FFBA49"/>
<circle opacity="0.9" cx="161.34" cy="16.34" r="4.34" fill="#FFBA49"/>
<path d="M134.766 43.9008C133.653 44.5422 132.716 45.4482 132.037 46.5385C131.358 47.6288 130.959 48.8696 130.874 50.1512C130.789 51.4327 131.022 52.7154 131.551 53.8856C132.08 55.0559 132.89 56.0775 133.909 56.86C134.927 57.6425 136.123 58.1618 137.39 58.3718C138.657 58.5818 139.956 58.4761 141.173 58.064C142.389 57.6519 143.485 56.9462 144.364 56.0093C145.242 55.0725 145.876 53.9334 146.209 52.693L141.207 51.3491C141.094 51.7668 140.881 52.1504 140.585 52.4658C140.289 52.7813 139.92 53.0189 139.511 53.1577C139.101 53.2964 138.663 53.332 138.237 53.2613C137.81 53.1906 137.408 53.0158 137.065 52.7523C136.722 52.4888 136.449 52.1448 136.271 51.7507C136.092 51.3567 136.014 50.9248 136.043 50.4932C136.071 50.0617 136.206 49.6439 136.434 49.2767C136.663 48.9096 136.979 48.6046 137.353 48.3886L134.766 43.9008Z" fill="#40C9A2"/>
<path d="M26.9816 29.7526C27.9653 30.2113 29.0469 30.4203 30.1307 30.3611C31.2145 30.302 32.2669 29.9764 33.1948 29.4134C34.1227 28.8503 34.8974 28.0671 35.4503 27.1331C36.0032 26.1991 36.3173 25.1432 36.3646 24.0589C36.412 22.9745 36.1911 21.8952 35.7217 20.9166C35.2523 19.938 34.5488 19.0902 33.6735 18.4484C32.7982 17.8066 31.7782 17.3906 30.7037 17.2372C29.6292 17.0838 28.5335 17.1978 27.5136 17.569L29.0108 21.6826C29.3542 21.5576 29.7232 21.5192 30.085 21.5709C30.4468 21.6225 30.7903 21.7626 31.085 21.9787C31.3798 22.1948 31.6166 22.4803 31.7747 22.8098C31.9328 23.1394 32.0071 23.5028 31.9912 23.8679C31.9752 24.233 31.8695 24.5886 31.6833 24.9031C31.4971 25.2176 31.2363 25.4813 30.9238 25.6709C30.6114 25.8605 30.257 25.9701 29.892 25.9901C29.5271 26.01 29.1629 25.9396 28.8317 25.7851L26.9816 29.7526Z" fill="#40C9A2"/>
<path d="M95.5602 115.907C93.1528 106.329 87.5374 97.8652 79.649 91.9241C71.7606 85.983 62.0751 82.9232 52.2053 83.2542C42.3354 83.5852 32.8767 87.287 25.404 93.7433C17.9314 100.2 12.8957 109.021 11.1354 118.738L31.2371 122.379C32.1651 117.256 34.82 112.605 38.7598 109.202C42.6995 105.798 47.6864 103.846 52.89 103.672C58.0936 103.497 63.2 105.11 67.359 108.242C71.5179 111.375 74.4785 115.837 75.7477 120.887L95.5602 115.907Z" fill="#2E4057"/>
</g>
<defs>
<clipPath id="clip0">
<rect width="180" height="118" rx="10" fill="white"/>
</clipPath>
</defs>
</svg>

<svg xmlns="http://www.w3.org/2000/svg" width="118" height="118" fill="none" viewBox="0 0 118 118">
    <g clip-path="url(#clip0)">
        <rect width="118" height="118" fill="#2F9C95" rx="10"/>
        <path fill="#1E524E" d="M59-.5C59 29.6 34.6 54 4.5 54S-50 29.6-50-.5-25.6-55 4.5-55 59-30.6 59-.5zm-83.948 0c0 16.264 13.184 29.448 29.448 29.448 16.264 0 29.448-13.184 29.448-29.448 0-16.264-13.184-29.448-29.448-29.448-16.264 0-29.448 13.184-29.448 29.448z" opacity=".2"/>
        <path stroke="#000" stroke-dasharray="5 4" stroke-width="2" d="M172.97 131.013C137.875 78.381 92.036 93.876 47.338 59.324-34.403-3.863 46.45-141.066-114-150.423l71.534 465.536L174.4 281.789c30.246-4.647 33.664-98.144-1.43-150.776z" opacity=".1"/>
        <circle cx="89.49" cy="102.49" r="7.49" fill="#FFBA49"/>
        <circle cx="100.34" cy="16.34" r="4.34" fill="#FFBA49" opacity=".9"/>
        <path fill="#40C9A2" d="M103.766 43.9c-1.113.642-2.05 1.548-2.729 2.639-.679 1.09-1.078 2.33-1.163 3.612-.085 1.282.148 2.564.677 3.735.529 1.17 1.339 2.191 2.358 2.974 1.018.782 2.214 1.302 3.481 1.512 1.267.21 2.566.104 3.783-.308 1.216-.412 2.312-1.118 3.191-2.055.878-.937 1.512-2.076 1.845-3.316l-5.002-1.344c-.113.418-.326.801-.622 1.117-.296.315-.665.553-1.074.692-.41.138-.848.174-1.274.103-.427-.07-.829-.245-1.172-.509-.343-.263-.616-.607-.794-1.001-.178-.394-.257-.826-.228-1.258.028-.431.163-.85.391-1.216.229-.367.545-.672.919-.889l-2.587-4.487zM26.982 29.753c.983.458 2.065.667 3.149.608 1.084-.06 2.136-.385 3.064-.948.928-.563 1.702-1.346 2.255-2.28.553-.934.867-1.99.915-3.074.047-1.085-.174-2.164-.643-3.143-.47-.978-1.173-1.826-2.048-2.468-.876-.641-1.896-1.057-2.97-1.21-1.075-.154-2.17-.04-3.19.33l1.497 4.114c.343-.124.712-.163 1.074-.111.362.051.705.192 1 .408.295.216.532.501.69.83.158.33.232.694.216 1.059-.016.365-.122.72-.308 1.035-.186.315-.447.578-.76.768-.312.19-.666.3-1.03.319-.366.02-.73-.05-1.061-.205l-1.85 3.968z"/>
        <path fill="#2E4057" d="M54.562 117.461c-1.06-4.219-3.534-7.948-7.01-10.565-3.474-2.617-7.741-3.965-12.089-3.819-4.348.145-8.515 1.776-11.807 4.62-3.291 2.844-5.51 6.73-6.285 11.011l8.855 1.604c.409-2.257 1.578-4.305 3.314-5.805 1.736-1.499 3.932-2.359 6.225-2.436 2.292-.077 4.541.634 6.373 2.014 1.833 1.379 3.137 3.345 3.696 5.57l8.728-2.194z"/>
    </g>
    <defs>
        <clipPath id="clip0">
            <rect width="118" height="118" fill="#fff" rx="10"/>
        </clipPath>
    </defs>
</svg>
